blog/2022/05-17-a-walk-in-the-graph/img/vpc_2_steps.svg

<svg xmlns="http://www.w3.org/2000/svg" xmlns:xlink="http://www.w3.org/1999/xlink" width="744" height="361" contentScriptType="application/ecmascript" contentStyleType="text/css" style="width:744px;height:361px;background:#00000000" preserveAspectRatio="none" version="1.1" viewBox="0 0 744 361" zoomAndPan="magnify"><g><rect id="digitalocean_droplet" width="211" height="39.789" x="152.5" y="216" fill="#3D176E" codeLine="24" rx="2.5" ry="2.5" style="stroke:#000d19;stroke-width:1.5"/><ellipse cx="167.5" cy="235.894" fill="#E98DF7" rx="11" ry="11" style="stroke:#000d19;stroke-width:1"/><path fill="#000" d="M170.4688,241.5352 Q169.8906,241.832 169.25,241.9727 Q168.6094,242.1289 167.9063,242.1289 Q165.4063,242.1289 164.0781,240.4883 Q162.7656,238.832 162.7656,235.707 Q162.7656,232.582 164.0781,230.9258 Q165.4063,229.2695 167.9063,229.2695 Q168.6094,229.2695 169.25,229.4258 Q169.9063,229.582 170.4688,229.8789 L170.4688,232.5977 Q169.8438,232.0195 169.25,231.7539 Q168.6563,231.4727 168.0313,231.4727 Q166.6875,231.4727 166,232.5508 Q165.3125,233.6133 165.3125,235.707 Q165.3125,237.8008 166,238.8789 Q166.6875,239.9414 168.0313,239.9414 Q168.6563,239.9414 169.25,239.6758 Q169.8438,239.3945 170.4688,238.8164 L170.4688,241.5352 Z"/><text x="186.5" y="241.78" fill="#D9B8FF" font-family="Helvetica" font-size="17" lengthAdjust="spacing" textLength="169">digitalocean_droplet</text><rect id="digitalocean_floating_ip" width="240" height="39.789" x="7" y="316" fill="#3D176E" codeLine="27" rx="2.5" ry="2.5" style="stroke:#000d19;stroke-width:1.5"/><ellipse cx="22" cy="335.894" fill="#E98DF7" rx="11" ry="11" style="stroke:#000d19;stroke-width:1"/><path fill="#000" d="M24.9688,341.5352 Q24.3906,341.832 23.75,341.9727 Q23.1094,342.1289 22.4063,342.1289 Q19.9063,342.1289 18.5781,340.4883 Q17.2656,338.832 17.2656,335.707 Q17.2656,332.582 18.5781,330.9258 Q19.9063,329.2695 22.4063,329.2695 Q23.1094,329.2695 23.75,329.4258 Q24.4063,329.582 24.9688,329.8789 L24.9688,332.5977 Q24.3438,332.0195 23.75,331.7539 Q23.1563,331.4727 22.5313,331.4727 Q21.1875,331.4727 20.5,332.5508 Q19.8125,333.6133 19.8125,335.707 Q19.8125,337.8008 20.5,338.8789 Q21.1875,339.9414 22.5313,339.9414 Q23.1563,339.9414 23.75,339.6758 Q24.3438,339.3945 24.9688,338.8164 L24.9688,341.5352 Z"/><text x="41" y="341.78" fill="#D9B8FF" font-family="Helvetica" font-size="17" lengthAdjust="spacing" textLength="198">digitalocean_floating_ip</text><rect id="digitalocean_volume" width="215" height="39.789" x="282.5" y="316" fill="#3D176E" codeLine="30" rx="2.5" ry="2.5" style="stroke:#000d19;stroke-width:1.5"/><ellipse cx="297.5" cy="335.894" fill="#E98DF7" rx="11" ry="11" style="stroke:#000d19;stroke-width:1"/><path fill="#000" d="M300.4688,341.5352 Q299.8906,341.832 299.25,341.9727 Q298.6094,342.1289 297.9063,342.1289 Q295.4063,342.1289 294.0781,340.4883 Q292.7656,338.832 292.7656,335.707 Q292.7656,332.582 294.0781,330.9258 Q295.4063,329.2695 297.9063,329.2695 Q298.6094,329.2695 299.25,329.4258 Q299.9063,329.582 300.4688,329.8789 L300.4688,332.5977 Q299.8438,332.0195 299.25,331.7539 Q298.6563,331.4727 298.0313,331.4727 Q296.6875,331.4727 296,332.5508 Q295.3125,333.6133 295.3125,335.707 Q295.3125,337.8008 296,338.8789 Q296.6875,339.9414 298.0313,339.9414 Q298.6563,339.9414 299.25,339.6758 Q299.8438,339.3945 300.4688,338.8164 L300.4688,341.5352 Z"/><text x="316.5" y="341.78" fill="#D9B8FF" font-family="Helvetica" font-size="17" lengthAdjust="spacing" textLength="173">digitalocean_volume</text><rect id="digitalocean_vpc" width="180" height="39.789" x="168" y="11" fill="#3D176E" codeLine="33" rx="2.5" ry="2.5" style="stroke:#000d19;stroke-width:1.5"/><ellipse cx="183" cy="30.895" fill="#E98DF7" rx="11" ry="11" style="stroke:#000d19;stroke-width:1"/><path fill="#000" d="M185.9688,36.5352 Q185.3906,36.832 184.75,36.9727 Q184.1094,37.1289 183.4063,37.1289 Q180.9063,37.1289 179.5781,35.4883 Q178.2656,33.832 178.2656,30.707 Q178.2656,27.582 179.5781,25.9258 Q180.9063,24.2695 183.4063,24.2695 Q184.1094,24.2695 184.75,24.4258 Q185.4063,24.582 185.9688,24.8789 L185.9688,27.5977 Q185.3438,27.0195 184.75,26.7539 Q184.1563,26.4727 183.5313,26.4727 Q182.1875,26.4727 181.5,27.5508 Q180.8125,28.6133 180.8125,30.707 Q180.8125,32.8008 181.5,33.8789 Q182.1875,34.9414 183.5313,34.9414 Q184.1563,34.9414 184.75,34.6758 Q185.3438,34.3945 185.9688,33.8164 L185.9688,36.5352 Z"/><text x="202" y="36.78" fill="#D9B8FF" font-family="Helvetica" font-size="17" lengthAdjust="spacing" textLength="138">digitalocean_vpc</text><path fill="#D9B8FF" d="M383.5,8.5 L383.5,53.7656 A2.5,2.5 0 0 0 386,56.2656 L486,56.2656 A2.5,2.5 0 0 0 488.5,53.7656 L488.5,16 L478.5,6 L386,6 A2.5,2.5 0 0 0 383.5,8.5" style="stroke:#000d19;stroke-width:1"/><path fill="#D9B8FF" d="M478.5,6 L478.5,14.75 A1.25,1.25 0 0 0 479.75,16 L488.5,16 L478.5,6" style="stroke:#000d19;stroke-width:1"/><text x="394.5" y="28.067" fill="#FFE797" font-family="Helvetica" font-size="13" font-weight="bold" lengthAdjust="spacing" text-decoration="line-through" textLength="5">-</text><text x="399.5" y="28.067" fill="#FFE797" font-family="Helvetica" font-size="13" font-weight="bold" lengthAdjust="spacing" text-decoration="line-through" textLength="5">-</text><text x="404.5" y="28.067" fill="#FFE797" font-family="Helvetica" font-size="13" font-weight="bold" lengthAdjust="spacing" textLength="20">----</text><text x="428.5" y="28.067" fill="#3D176E" font-family="Helvetica" font-size="13" lengthAdjust="spacing" textLength="40">step 1</text><text x="394.5" y="43.2" fill="#FFAF37" font-family="Helvetica" font-size="13" font-weight="bold" lengthAdjust="spacing" text-decoration="line-through" textLength="5">-</text><text x="399.5" y="43.2" fill="#FFAF37" font-family="Helvetica" font-size="13" font-weight="bold" lengthAdjust="spacing" text-decoration="line-through" textLength="5">-</text><text x="404.5" y="43.2" fill="#FFAF37" font-family="Helvetica" font-size="13" font-weight="bold" lengthAdjust="spacing" textLength="20">----</text><text x="428.5" y="43.2" fill="#3D176E" font-family="Helvetica" font-size="13" lengthAdjust="spacing" textLength="40">step 2</text><rect id="digitalocean_load_balancer" width="267" height="39.789" x="124.5" y="116" fill="#3D176E" codeLine="40" rx="2.5" ry="2.5" style="stroke:#000d19;stroke-width:1.5"/><ellipse cx="139.5" cy="135.894" fill="#E98DF7" rx="11" ry="11" style="stroke:#000d19;stroke-width:1"/><path fill="#000" d="M142.4688,141.5352 Q141.8906,141.832 141.25,141.9727 Q140.6094,142.1289 139.9063,142.1289 Q137.4063,142.1289 136.0781,140.4883 Q134.7656,138.832 134.7656,135.707 Q134.7656,132.582 136.0781,130.9258 Q137.4063,129.2695 139.9063,129.2695 Q140.6094,129.2695 141.25,129.4258 Q141.9063,129.582 142.4688,129.8789 L142.4688,132.5977 Q141.8438,132.0195 141.25,131.7539 Q140.6563,131.4727 140.0313,131.4727 Q138.6875,131.4727 138,132.5508 Q137.3125,133.6133 137.3125,135.707 Q137.3125,137.8008 138,138.8789 Q138.6875,139.9414 140.0313,139.9414 Q140.6563,139.9414 141.25,139.6758 Q141.8438,139.3945 142.4688,138.8164 L142.4688,141.5352 Z"/><text x="158.5" y="141.78" fill="#D9B8FF" font-family="Helvetica" font-size="17" lengthAdjust="spacing" textLength="225">digitalocean_load_balancer</text><rect id="digitalocean_kubernetes_cluster" width="311" height="39.789" x="426.5" y="116" fill="#3D176E" codeLine="43" rx="2.5" ry="2.5" style="stroke:#000d19;stroke-width:1.5"/><ellipse cx="441.5" cy="135.894" fill="#E98DF7" rx="11" ry="11" style="stroke:#000d19;stroke-width:1"/><path fill="#000" d="M444.4688,141.5352 Q443.8906,141.832 443.25,141.9727 Q442.6094,142.1289 441.9063,142.1289 Q439.4063,142.1289 438.0781,140.4883 Q436.7656,138.832 436.7656,135.707 Q436.7656,132.582 438.0781,130.9258 Q439.4063,129.2695 441.9063,129.2695 Q442.6094,129.2695 443.25,129.4258 Q443.9063,129.582 444.4688,129.8789 L444.4688,132.5977 Q443.8438,132.0195 443.25,131.7539 Q442.6563,131.4727 442.0313,131.4727 Q440.6875,131.4727 440,132.5508 Q439.3125,133.6133 439.3125,135.707 Q439.3125,137.8008 440,138.8789 Q440.6875,139.9414 442.0313,139.9414 Q442.6563,139.9414 443.25,139.6758 Q443.8438,139.3945 444.4688,138.8164 L444.4688,141.5352 Z"/><text x="460.5" y="141.78" fill="#D9B8FF" font-family="Helvetica" font-size="17" lengthAdjust="spacing" textLength="269">digitalocean_kubernetes_cluster</text><path id="digitalocean_droplet-to-digitalocean_floating_ip" fill="none" d="M232.43,256.13 C210.7,272.38 179.49,295.73 156.66,312.81" codeLine="46" style="stroke:#ffaf37;stroke-width:2"/><polygon fill="#FFAF37" points="152.5 315.92 162.104 313.736 156.505 312.927 157.315 307.328 152.5 315.92" style="stroke:#ffaf37;stroke-width:2"/><path id="digitalocean_droplet-to-digitalocean_volume" fill="none" d="M283.76,256.13 C305.66,272.38 337.11,295.73 360.11,312.81" codeLine="47" style="stroke:#ffaf37;stroke-width:2"/><polygon fill="#FFAF37" points="364.3 315.92 359.466 307.339 360.288 312.936 354.691 313.758 364.3 315.92" style="stroke:#ffaf37;stroke-width:2"/><path id="digitalocean_vpc-to-digitalocean_load_balancer" fill="none" d="M258,51.37 C258,68.06 258,92.24 258,110.32" codeLine="48" style="stroke:#ffe797;stroke-width:2"/><polygon fill="#FFE797" points="258 115.71 262 106.71 258 110.71 254 106.71 258 115.71" style="stroke:#ffe797;stroke-width:2"/><path id="digitalocean_vpc-to-digitalocean_kubernetes_cluster" fill="none" d="M317.8,51.01 C374.36,68.99 459,95.9 517.16,114.39" codeLine="49" style="stroke:#ffe797;stroke-width:2"/><polygon fill="#FFE797" points="522 115.92 514.632 109.385 517.234 114.407 512.212 117.01 522 115.92" style="stroke:#ffe797;stroke-width:2"/><path id="digitalocean_vpc-to-digitalocean_droplet" fill="none" d="M199.86,51.06 C146.15,72.05 78.63,109.14 107,156 C123.66,183.51 153.4,201.91 182.1,213.96" codeLine="50" style="stroke:#ffe797;stroke-width:2"/><polygon fill="#FFE797" points="187.07 215.99 180.263 208.872 182.445 214.091 177.225 216.273 187.07 215.99" style="stroke:#ffe797;stroke-width:2"/><path id="digitalocean_load_balancer-to-digitalocean_droplet" fill="none" d="M258,156.36 C258,171.93 258,193.9 258,210.66" codeLine="51" style="stroke:#ffaf37;stroke-width:2"/><polygon fill="#FFAF37" points="258 215.68 262 206.68 258 210.68 254 206.68 258 215.68" style="stroke:#ffaf37;stroke-width:2"/><path id="digitalocean_kubernetes_cluster-to-digitalocean_droplet" fill="none" d="M519.15,156.01 C463.68,172.79 383.02,197.19 326.05,214.42" codeLine="52" style="stroke:#ffaf37;stroke-width:2"/><polygon fill="#FFAF37" points="320.96 215.96 330.735 217.165 325.743 214.504 328.405 209.512 320.96 215.96" style="stroke:#ffaf37;stroke-width:2"/></g></svg>

<svg xmlns="http://www.w3.org/2000/svg" width="744" height="361" preserveAspectRatio="none" style="width:744px;height:361px;background:#00000000"><rect width="211" height="39.789" x="152.5" y="216" fill="#3D176E" rx="2.5" ry="2.5" style="stroke:#000d19;stroke-width:1.5"/><circle cx="167.5" cy="235.894" r="11" fill="#E98DF7" style="stroke:#000d19;stroke-width:1"/><path d="M170.469 241.535q-.578.297-1.219.438-.64.156-1.344.156-2.5 0-3.828-1.64-1.312-1.657-1.312-4.782t1.312-4.781q1.328-1.656 3.828-1.656.703 0 1.344.156.656.156 1.219.453v2.719q-.625-.579-1.219-.844-.594-.281-1.219-.281-1.344 0-2.031 1.078-.688 1.062-.688 3.156 0 2.094.688 3.172.688 1.062 2.031 1.062.625 0 1.219-.265.594-.281 1.219-.86v2.72Z"/><text x="186.5" y="241.78" fill="#D9B8FF" font-family="Helvetica" font-size="17" textLength="169">digitalocean_droplet</text><rect width="240" height="39.789" x="7" y="316" fill="#3D176E" rx="2.5" ry="2.5" style="stroke:#000d19;stroke-width:1.5"/><circle cx="22" cy="335.894" r="11" fill="#E98DF7" style="stroke:#000d19;stroke-width:1"/><path d="M24.969 341.535q-.578.297-1.219.438-.64.156-1.344.156-2.5 0-3.828-1.64-1.312-1.657-1.312-4.782t1.312-4.781q1.328-1.656 3.828-1.656.703 0 1.344.156.656.156 1.219.453v2.719q-.625-.579-1.219-.844-.594-.281-1.219-.281-1.343 0-2.031 1.078-.688 1.062-.688 3.156 0 2.094.688 3.172.688 1.062 2.031 1.062.625 0 1.219-.265.594-.281 1.219-.86v2.72Z"/><text x="41" y="341.78" fill="#D9B8FF" font-family="Helvetica" font-size="17" textLength="198">digitalocean_floating_ip</text><rect width="215" height="39.789" x="282.5" y="316" fill="#3D176E" rx="2.5" ry="2.5" style="stroke:#000d19;stroke-width:1.5"/><circle cx="297.5" cy="335.894" r="11" fill="#E98DF7" style="stroke:#000d19;stroke-width:1"/><path d="M300.469 341.535q-.578.297-1.219.438-.64.156-1.344.156-2.5 0-3.828-1.64-1.312-1.657-1.312-4.782t1.312-4.781q1.328-1.656 3.828-1.656.703 0 1.344.156.656.156 1.219.453v2.719q-.625-.579-1.219-.844-.594-.281-1.219-.281-1.344 0-2.031 1.078-.688 1.062-.688 3.156 0 2.094.688 3.172.688 1.062 2.031 1.062.625 0 1.219-.265.594-.281 1.219-.86v2.72Z"/><text x="316.5" y="341.78" fill="#D9B8FF" font-family="Helvetica" font-size="17" textLength="173">digitalocean_volume</text><rect width="180" height="39.789" x="168" y="11" fill="#3D176E" rx="2.5" ry="2.5" style="stroke:#000d19;stroke-width:1.5"/><circle cx="183" cy="30.895" r="11" fill="#E98DF7" style="stroke:#000d19;stroke-width:1"/><path d="M185.969 36.535q-.578.297-1.219.438-.64.156-1.344.156-2.5 0-3.828-1.64-1.312-1.657-1.312-4.782t1.312-4.781q1.328-1.656 3.828-1.656.703 0 1.344.156.656.156 1.219.453v2.719q-.625-.578-1.219-.844-.594-.281-1.219-.281-1.344 0-2.031 1.078-.688 1.062-.688 3.156 0 2.094.688 3.172.688 1.062 2.031 1.062.625 0 1.219-.265.594-.282 1.219-.86v2.72Z"/><text x="202" y="36.78" fill="#D9B8FF" font-family="Helvetica" font-size="17" textLength="138">digitalocean_vpc</text><path fill="#D9B8FF" d="M383.5 8.5v45.266a2.5 2.5 0 0 0 2.5 2.5h100a2.5 2.5 0 0 0 2.5-2.5V16l-10-10H386a2.5 2.5 0 0 0-2.5 2.5" style="stroke:#000d19;stroke-width:1"/><path fill="#D9B8FF" d="M478.5 6v8.75a1.25 1.25 0 0 0 1.25 1.25h8.75l-10-10" style="stroke:#000d19;stroke-width:1"/><text x="394.5" y="28.067" fill="#FFE797" font-family="Helvetica" font-size="13" font-weight="bold" text-decoration="line-through" textLength="5">-</text><text x="399.5" y="28.067" fill="#FFE797" font-family="Helvetica" font-size="13" font-weight="bold" text-decoration="line-through" textLength="5">-</text><text x="404.5" y="28.067" fill="#FFE797" font-family="Helvetica" font-size="13" font-weight="bold" textLength="20">----</text><text x="428.5" y="28.067" fill="#3D176E" font-family="Helvetica" font-size="13" textLength="40">step 1</text><text x="394.5" y="43.2" fill="#FFAF37" font-family="Helvetica" font-size="13" font-weight="bold" text-decoration="line-through" textLength="5">-</text><text x="399.5" y="43.2" fill="#FFAF37" font-family="Helvetica" font-size="13" font-weight="bold" text-decoration="line-through" textLength="5">-</text><text x="404.5" y="43.2" fill="#FFAF37" font-family="Helvetica" font-size="13" font-weight="bold" textLength="20">----</text><text x="428.5" y="43.2" fill="#3D176E" font-family="Helvetica" font-size="13" textLength="40">step 2</text><rect width="267" height="39.789" x="124.5" y="116" fill="#3D176E" rx="2.5" ry="2.5" style="stroke:#000d19;stroke-width:1.5"/><circle cx="139.5" cy="135.894" r="11" fill="#E98DF7" style="stroke:#000d19;stroke-width:1"/><path d="M142.469 141.535q-.578.297-1.219.438-.64.156-1.344.156-2.5 0-3.828-1.64-1.312-1.657-1.312-4.782t1.312-4.781q1.328-1.656 3.828-1.656.703 0 1.344.156.656.156 1.219.453v2.719q-.625-.579-1.219-.844-.594-.281-1.219-.281-1.344 0-2.031 1.078-.688 1.062-.688 3.156 0 2.094.688 3.172.688 1.062 2.031 1.062.625 0 1.219-.265.594-.281 1.219-.86v2.72Z"/><text x="158.5" y="141.78" fill="#D9B8FF" font-family="Helvetica" font-size="17" textLength="225">digitalocean_load_balancer</text><rect width="311" height="39.789" x="426.5" y="116" fill="#3D176E" rx="2.5" ry="2.5" style="stroke:#000d19;stroke-width:1.5"/><circle cx="441.5" cy="135.894" r="11" fill="#E98DF7" style="stroke:#000d19;stroke-width:1"/><path d="M444.469 141.535q-.578.297-1.219.438-.64.156-1.344.156-2.5 0-3.828-1.64-1.312-1.657-1.312-4.782t1.312-4.781q1.328-1.656 3.828-1.656.703 0 1.344.156.656.156 1.219.453v2.719q-.625-.579-1.219-.844-.594-.281-1.219-.281-1.344 0-2.031 1.078-.688 1.062-.688 3.156 0 2.094.688 3.172.688 1.062 2.031 1.062.625 0 1.219-.265.594-.281 1.219-.86v2.72Z"/><text x="460.5" y="141.78" fill="#D9B8FF" font-family="Helvetica" font-size="17" textLength="269">digitalocean_kubernetes_cluster</text><path fill="none" d="M232.43 256.13c-21.73 16.25-52.94 39.6-75.77 56.68" style="stroke:#ffaf37;stroke-width:2"/><path fill="#FFAF37" d="m152.5 315.92 9.604-2.184-5.599-.809.81-5.599-4.815 8.592z" style="stroke:#ffaf37;stroke-width:2"/><path fill="none" d="M283.76 256.13c21.9 16.25 53.35 39.6 76.35 56.68" style="stroke:#ffaf37;stroke-width:2"/><path fill="#FFAF37" d="m364.3 315.92-4.834-8.581.822 5.597-5.597.822 9.609 2.162z" style="stroke:#ffaf37;stroke-width:2"/><path fill="none" d="M258 51.37v58.95" style="stroke:#ffe797;stroke-width:2"/><path fill="#FFE797" d="m258 115.71 4-9-4 4-4-4 4 9z" style="stroke:#ffe797;stroke-width:2"/><path fill="none" d="M317.8 51.01C374.36 68.99 459 95.9 517.16 114.39" style="stroke:#ffe797;stroke-width:2"/><path fill="#FFE797" d="m522 115.92-7.368-6.535 2.602 5.022-5.022 2.603 9.788-1.09z" style="stroke:#ffe797;stroke-width:2"/><path fill="none" d="M199.86 51.06C146.15 72.05 78.63 109.14 107 156c16.66 27.51 46.4 45.91 75.1 57.96" style="stroke:#ffe797;stroke-width:2"/><path fill="#FFE797" d="m187.07 215.99-6.807-7.118 2.182 5.219-5.22 2.182 9.845-.283z" style="stroke:#ffe797;stroke-width:2"/><path fill="none" d="M258 156.36v54.3" style="stroke:#ffaf37;stroke-width:2"/><path fill="#FFAF37" d="m258 215.68 4-9-4 4-4-4 4 9z" style="stroke:#ffaf37;stroke-width:2"/><path fill="none" d="M519.15 156.01c-55.47 16.78-136.13 41.18-193.1 58.41" style="stroke:#ffaf37;stroke-width:2"/><path fill="#FFAF37" d="m320.96 215.96 9.775 1.205-4.992-2.661 2.662-4.992-7.445 6.448z" style="stroke:#ffaf37;stroke-width:2"/></svg>
